dist/img/house.svg

<svg width="102" height="102" viewBox="0 0 102 102" fill="none" xmlns="http://www.w3.org/2000/svg">
<path d="M7.78751 32.6741H94.2128C94.2146 32.6744 94.216 32.6741 94.2174 32.6741C95.4669 32.6741 96.4798 31.661 96.4798 30.4117C96.4798 29.5642 96.014 28.8255 95.3244 28.438L52.2038 1.34666C51.4676 0.884446 50.5325 0.884446 49.7963 1.34666L6.58367 28.4959C5.73005 29.0323 5.33435 30.0689 5.61331 31.0379C5.89249 32.0069 6.77914 32.6741 7.78751 32.6741ZM51.0002 5.93442L86.359 28.1493H15.6414L51.0002 5.93442Z" fill="#306990" stroke="#306990" stroke-width="2"/>
<path d="M98.7376 85.1629H96.4751V78.3756C96.4751 77.1263 95.462 76.1132 94.2127 76.1132H91.9502V41.7242H94.2127C95.462 41.7242 96.4751 40.7111 96.4751 39.4618C96.4751 38.2125 95.462 37.1993 94.2127 37.1993H7.78733C6.53801 37.1993 5.52489 38.2125 5.52489 39.4618C5.52489 40.7111 6.53801 41.7242 7.78733 41.7242H10.0498V76.1132H7.78733C6.53801 76.1132 5.52489 77.1263 5.52489 78.3756V85.1629H3.26244C2.01312 85.1629 1 86.176 1 87.4254V98.7375C1 99.9868 2.01312 101 3.26244 101H98.7376C99.9869 101 101 99.9868 101 98.7375V87.4254C101 86.176 99.9869 85.1629 98.7376 85.1629ZM87.4253 76.1132H82.9005V41.7242H87.4253V76.1132ZM69.4767 76.1132V41.7242H78.3756V76.1132H69.4767ZM60.4269 76.1132V41.7242H64.9518V76.1132H60.4269ZM46.098 76.1132V41.7242H55.902V76.1132H46.098ZM37.0482 76.1132V41.7242H41.5731V76.1132H37.0482ZM23.6244 76.1132V41.7242H32.5233V76.1132H23.6244ZM14.5747 41.7242H19.0995V76.1132H14.5747V41.7242ZM96.4751 96.4751H5.52489V89.6878H23.7627C25.012 89.6878 26.0251 88.6747 26.0251 87.4254C26.0251 86.176 25.012 85.1629 23.7627 85.1629H10.0498V80.6381H91.9502V85.1629H31.4803C30.231 85.1629 29.2179 86.176 29.2179 87.4254C29.2179 88.6747 30.231 89.6878 31.4803 89.6878H96.4751V96.4751Z" fill="#306990" stroke="#306990" stroke-width="2"/>
</svg>

<svg width="102" height="102" fill="none" xmlns="http://www.w3.org/2000/svg"><path d="M7.788 32.674h86.429a2.263 2.263 0 001.107-4.236L52.204 1.347a2.263 2.263 0 00-2.408 0L6.584 28.496a2.263 2.263 0 001.204 4.178zM51 5.934L86.36 28.15H15.641l35.36-22.215zm47.738 79.229h-2.263v-6.787a2.263 2.263 0 00-2.262-2.263H91.95V41.724h2.263a2.263 2.263 0 000-4.525H7.787a2.263 2.263 0 000 4.525h2.263v34.39H7.787a2.263 2.263 0 00-2.262 2.262v6.787H3.262A2.263 2.263 0 001 87.425v11.313A2.263 2.263 0 003.262 101h95.476A2.263 2.263 0 00101 98.737V87.425a2.263 2.263 0 00-2.262-2.262zm-11.313-9.05H82.9V41.724h4.525v34.39zm-17.948 0V41.724h8.899v34.39h-8.9zm-9.05 0V41.724h4.525v34.39h-4.525zm-14.329 0V41.724h9.804v34.39h-9.804zm-9.05 0V41.724h4.525v34.39h-4.525zm-13.424 0V41.724h8.9v34.39h-8.9zm-9.05-34.389H19.1v34.39h-4.524v-34.39zm81.901 54.751H5.525v-6.787h18.238a2.263 2.263 0 000-4.525H10.05v-4.525h81.9v4.525H31.48a2.263 2.263 0 000 4.525h64.995v6.787z" fill="#306990" stroke="#306990" stroke-width="2"/></svg>
